X: 4283
M: C
L: 1/8
K: D
|:\
ca^ga =gece |[1 dfed cBA^G :|[2 d2f2d2 |:\
(ed) |\
cAce gbag | fgaf dfed |
cAce gbag | fgaf d2(cB) |\
ca^ga =gece |[1 d2f2d2 :|[2 d2f2d2z2 |]


